X:008
T: Bless Tipperary
N: O'Farrell's Pocket Companion v.1 (Sky ed. p.15)
M: C
L: 1/8
R: air
Q: 100
K: D
fg | a/g/f/e/ dc d2 A>d | g2 g/b/a/g/ f2 ef/g/|
a/g/f/e/ dc d2 A>d | c>A BA/B/ A3 || c/d/| eeef g2 gf|
b>ab>c' b>agf | bf fe/f/ g2 fe | dB d/c/B/A/ HB3 f/g/|
a/g/f/e/ dc d2 A>d | g2 g/b/a/g/ f2 e>A | dd/d/ dd/d/ dd/d/ fa|
dd/d/ dd/d/ dd/d/ fa|dd/d/ fa dd/d/ fa| b/a/g/f/ ba g2 f>d|
e>f g/f/e/d/ cB/c/ A>g | fg/a/ A>g fg/a/ A>g|fg/a/ Ac d4||
